carriers/sps.svg

<svg width="128" height="64" viewBox="0 0 128 64" fill="none" xmlns="http://www.w3.org/2000/svg">
<rect width="128" height="64" rx="6" fill="#232529"/>
<path d="M69.5322 45.148C69.5841 46.2446 70.2627 46.5973 71.293 46.5973C72.0238 46.5973 72.7803 46.3355 72.7803 45.6443C72.7803 44.8224 71.4495 44.6655 70.1061 44.2871C68.7753 43.909 67.3795 43.3086 67.3795 41.6C67.3795 39.5646 69.4275 38.769 71.1754 38.769C73.028 38.769 74.8941 39.6689 74.9073 41.7695H72.4808C72.5194 40.9214 71.7239 40.6474 70.9802 40.6474C70.4585 40.6474 69.8057 40.8303 69.8057 41.4432C69.8057 42.1608 71.15 42.2912 72.5065 42.6693C73.8502 43.0484 75.2071 43.6742 75.2071 45.3567C75.2071 47.7184 73.1977 48.4753 71.15 48.4753C69.0101 48.4753 67.1183 47.5361 67.1057 45.1483H69.5319M76.1555 38.9642H83.5789V40.9082H78.5823V42.5392H83.1486V44.4175H78.5823V46.1915H83.709V48.2795H76.1558V38.9645M86.9968 43.0088H89.0322C89.7627 43.0088 90.154 42.6175 90.154 41.9131C90.154 41.221 89.6065 40.9082 88.9279 40.9082H86.9968V43.0088ZM84.5706 38.9642H89.3195C90.9634 38.9642 92.5808 39.7082 92.5808 41.5868C92.5808 42.5917 92.0983 43.5437 91.1193 43.9219V43.9483C92.1112 44.1831 92.3982 45.2916 92.4768 46.1789C92.5026 46.5706 92.5412 47.94 92.8681 48.2795H90.4671C90.2584 47.9658 90.2191 47.0534 90.193 46.7919C90.1285 45.8527 89.9717 44.8874 88.8364 44.8874H86.9964V48.2795H84.5703V38.9645M98.2956 48.2795H95.503L92.5676 38.9645H95.0988L96.9255 45.892H96.9507L98.7781 38.9642H101.309L98.2956 48.2795ZM101.479 38.9642H103.905V48.2792H101.479V38.9642ZM111.25 42.2912C111.119 41.352 110.389 40.8564 109.372 40.8564C107.806 40.8564 107.205 42.2393 107.205 43.6217C107.205 45.005 107.806 46.3876 109.372 46.3876C110.506 46.3876 111.159 45.7354 111.25 44.6658H113.677C113.546 47.0659 111.785 48.4753 109.424 48.4753C106.606 48.4753 104.779 46.3226 104.779 43.6217C104.779 40.9214 106.606 38.769 109.424 38.769C111.433 38.769 113.611 40.0473 113.677 42.2912H111.25ZM114.447 38.9642H121.87V40.9082H116.873V42.5392H121.439V44.4175H116.873V46.1915H122V48.2795H114.447V38.9642ZM70.0669 31.6516H71.6972C72.4544 31.6516 73.0022 31.3385 73.0022 30.4902C73.0022 29.6164 72.4415 29.2644 71.6972 29.2644H70.0669V31.6516ZM67.6401 27.3204H72.0627C73.7977 27.3204 75.4293 28.1162 75.4293 30.3208C75.4293 32.6304 74.1111 33.5302 72.0624 33.5302H70.0669V36.6353H67.6401V27.3204ZM77.9559 33.1647H80.0696L79.039 29.9034H79.0129L77.9559 33.1647ZM77.8 27.3204H80.2654L83.7489 36.6353H81.2178L80.6439 34.9654H77.3951L76.808 36.635H74.3161L77.8 27.3204ZM86.3584 31.3643H88.3932C89.1237 31.3643 89.5156 30.9733 89.5156 30.2686C89.5156 29.5771 88.9672 29.2641 88.2892 29.2641H86.3587L86.3584 31.3643ZM83.9319 27.3204H88.6799C90.3244 27.3204 91.9418 28.0637 91.9418 29.9424C91.9418 30.9469 91.4593 31.8996 90.4809 32.278V32.3038C91.4722 32.5386 91.7595 33.6475 91.8375 34.5345C91.8639 34.9261 91.9025 36.2962 92.2288 36.6353H89.8284C89.6197 36.3223 89.5807 35.4089 89.5546 35.1477C89.4889 34.2085 89.3327 33.243 88.1974 33.243H86.3584V36.6353H83.9319V27.3204ZM98.9266 30.6474C98.7959 29.7079 98.0651 29.2119 97.0477 29.2119C95.4821 29.2119 94.8821 30.5949 94.8821 31.9776C94.8821 33.3608 95.4821 34.7435 97.0477 34.7435C98.1827 34.7435 98.8349 34.0913 98.9266 33.0217H101.353C101.222 35.4221 99.4613 36.8305 97.1002 36.8305C94.2824 36.8305 92.4556 34.6784 92.4556 31.9776C92.4556 29.277 94.2824 27.1246 97.1002 27.1246C99.109 27.1246 101.288 28.4029 101.353 30.6474H98.9266ZM102.123 27.3204H109.546V29.2641H104.55V30.8951H109.116V32.7737H104.55V34.548H109.677V36.635H102.123V27.3204ZM110.538 27.3204H112.964V34.5483H117.309V36.6353H110.538V27.3204ZM69.5322 21.8701C69.5841 22.9658 70.2627 23.3182 71.293 23.3182C72.0238 23.3182 72.7803 23.0573 72.7803 22.3658C72.7803 21.5439 71.4495 21.3874 70.1061 21.0092C68.7753 20.6305 67.3795 20.0302 67.3795 18.3216C67.3795 16.2864 69.4275 15.4902 71.1754 15.4902C73.028 15.4902 74.8941 16.3907 74.9073 18.4913H72.4808C72.5194 17.6433 71.7239 17.3686 70.9802 17.3686C70.4585 17.3686 69.8057 17.5518 69.8057 18.165C69.8057 18.8826 71.15 19.013 72.5065 19.3912C73.8502 19.7696 75.2071 20.3957 75.2071 22.0788C75.2071 24.44 73.1977 25.1968 71.15 25.1968C69.0101 25.1968 67.1183 24.2573 67.1057 21.8701H69.5322ZM75.9769 15.6864H78.4031V22.9137H82.7475V25.001H75.9769V15.6864ZM87.5851 23.1095C89.151 23.1095 89.7513 21.7268 89.7513 20.3435C89.7513 18.9609 89.151 17.5782 87.5854 17.5782C86.0201 17.5782 85.4198 18.9609 85.4198 20.3435C85.4198 21.7268 86.0201 23.1095 87.5854 23.1095M87.5854 15.4902C90.5211 15.4902 92.1775 17.643 92.1775 20.3435C92.1775 23.0441 90.5211 25.1968 87.5854 25.1968C84.6501 25.1968 82.993 23.0441 82.993 20.3435C82.993 17.643 84.6501 15.4902 87.5854 15.4902ZM97.7223 25.001H94.9306L91.9952 15.686H94.5261L96.3525 22.6138H96.3786L98.2051 15.686H100.736L97.7223 25.001ZM102.941 21.5307H105.055L104.024 18.2694H103.998L102.941 21.5307ZM102.785 15.6864H105.251L108.734 25.001H106.202L105.629 23.3314H102.38L101.793 25.001H99.3014L102.785 15.6864ZM109.095 15.6864H111.522V19.2607L114.587 15.6864H117.601L114.157 19.3519L118.032 25.001H115.018L112.514 21.0872L111.522 22.1307V25.001H109.095V15.6864Z" fill="white"/>
<path d="M62.4962 16.8424C62.1951 16.1494 61.503 15.7167 60.6863 15.7007V15.6986H60.6403L53.749 15.6973L53.4323 16.1773C53.2739 16.4152 51.7123 18.7499 49.366 22.0309L49.3055 22.1147C47.1991 25.0602 44.3988 28.7251 41.0377 32.4685C33.4302 40.9395 30.1814 42.5628 28.7174 43.2555C28.649 43.288 28.5861 43.3175 28.5278 43.3457C26.8661 44.1504 25.1158 44.5412 23.1757 44.5412C16.2557 44.5412 10.6259 38.9111 10.6259 31.991C10.6259 25.0709 16.2557 19.4405 23.1751 19.4405C27.1506 19.4405 30.9036 21.3397 33.2672 24.5313L36.0531 20.6292C32.9004 17.0208 28.2537 14.8269 23.1576 14.8269C13.6972 14.8269 6 22.5281 6 31.9999C6 41.4683 13.6972 49.1732 23.1576 49.1732C33.32 49.1732 41.3066 42.1325 46.4327 36.8403C50.4577 32.6803 61.8096 19.5964 61.9235 19.4647L61.9155 19.4571C62.9167 18.2128 62.6641 17.2273 62.4962 16.8424Z" fill="#F47216"/>
<path d="M30.2715 33.5127C28.4448 36.069 25.9121 38.7736 22.4998 38.447C19.3091 38.1422 16.6745 35.3778 16.6901 31.9895C16.6987 30.2047 17.3076 28.7248 18.5724 27.4317C19.8152 26.162 21.4737 25.5166 23.1799 25.508C25.1457 25.4978 27.7735 26.5021 29.0807 29.3113C29.2538 29.6827 29.3517 30.0065 29.3517 30.0065L32.3748 25.7793L32.2275 25.5304C30.1411 22.6119 26.7595 20.8707 23.1759 20.8707C17.0437 20.8707 12.0557 25.8591 12.0557 31.991C12.0557 38.1229 17.044 43.1112 23.1759 43.1112C25.4661 43.1112 26.9716 42.5106 27.9046 42.0591C27.9666 42.029 28.0335 41.9977 28.1059 41.9637C29.3726 41.364 32.5587 39.7707 39.9741 31.5131C43.2821 27.8289 46.0572 24.1993 48.1431 21.2829L48.2032 21.1995C49.5048 19.3825 50.7817 17.548 52.0335 15.6964L43.0498 15.6946L43.031 15.6958C42.9193 15.852 31.9488 31.2351 31.0637 32.4216L30.2718 33.5124" fill="#F47216"/>
</svg>

<svg xmlns="http://www.w3.org/2000/svg" width="128" height="64" fill="none"><rect width="128" height="64" fill="#232529" rx="6"/><path fill="#fff" d="M69.532 45.148c.052 1.097.73 1.45 1.761 1.45.73 0 1.487-.262 1.487-.954 0-.822-1.33-.978-2.674-1.357-1.33-.378-2.727-.978-2.727-2.687 0-2.035 2.048-2.831 3.796-2.831 1.853 0 3.72.9 3.732 3h-2.426c.038-.848-.757-1.122-1.5-1.122-.522 0-1.175.183-1.175.796 0 .718 1.344.848 2.7 1.226 1.344.38 2.701 1.005 2.701 2.688 0 2.361-2.01 3.118-4.057 3.118-2.14 0-4.032-.939-4.044-3.327h2.426m6.624-6.184h7.423v1.944h-4.997v1.631h4.567v1.878h-4.567v1.774h5.127v2.088h-7.553v-9.315m10.84 4.045h2.036c.73 0 1.122-.392 1.122-1.096 0-.692-.547-1.005-1.226-1.005h-1.931v2.1Zm-2.425-4.045h4.749c1.643 0 3.26.744 3.26 2.623 0 1.005-.482 1.957-1.46 2.335v.026c.991.235 1.278 1.344 1.357 2.23.026.393.064 1.762.391 2.102h-2.4c-.21-.314-.249-1.227-.275-1.488-.064-.94-.221-1.905-1.357-1.905h-1.84v3.392H84.57v-9.315m13.726 9.316h-2.793l-2.935-9.316h2.53l1.828 6.928h.025l1.827-6.928h2.531l-3.013 9.316Zm3.183-9.316h2.426v9.315h-2.426v-9.315Zm9.771 3.327c-.131-.939-.861-1.435-1.878-1.435-1.566 0-2.167 1.383-2.167 2.766s.601 2.766 2.167 2.766c1.134 0 1.787-.653 1.878-1.722h2.427c-.131 2.4-1.892 3.81-4.253 3.81-2.818 0-4.645-2.153-4.645-4.854 0-2.7 1.827-4.853 4.645-4.853 2.009 0 4.187 1.278 4.253 3.522h-2.427Zm3.197-3.327h7.423v1.944h-4.997v1.631h4.566v1.878h-4.566v1.774H122v2.088h-7.553v-9.315Zm-44.38-7.312h1.63c.757 0 1.305-.314 1.305-1.162 0-.874-.56-1.226-1.305-1.226h-1.63v2.388ZM67.64 27.32h4.423c1.735 0 3.366.796 3.366 3 0 2.31-1.318 3.21-3.367 3.21h-1.995v3.105H67.64V27.32Zm10.316 5.845h2.114l-1.031-3.262h-.026l-1.057 3.262ZM77.8 27.32h2.465l3.484 9.315h-2.531l-.574-1.67h-3.249l-.587 1.67h-2.492L77.8 27.32Zm8.558 4.044h2.035c.73 0 1.123-.39 1.123-1.095 0-.692-.549-1.005-1.227-1.005h-1.93v2.1Zm-2.426-4.044h4.748c1.644 0 3.262.744 3.262 2.622 0 1.005-.483 1.958-1.461 2.336v.026c.991.235 1.279 1.343 1.357 2.23.026.392.065 1.762.39 2.101h-2.4c-.208-.313-.247-1.226-.273-1.487-.066-.94-.222-1.905-1.358-1.905h-1.839v3.392h-2.426V27.32Zm14.995 3.327c-.131-.94-.862-1.435-1.88-1.435-1.565 0-2.165 1.383-2.165 2.766s.6 2.765 2.166 2.765c1.135 0 1.787-.652 1.879-1.721h2.426c-.131 2.4-1.892 3.809-4.253 3.809-2.818 0-4.644-2.153-4.644-4.853 0-2.701 1.826-4.853 4.644-4.853 2.009 0 4.188 1.278 4.253 3.522h-2.426Zm3.196-3.327h7.423v1.944h-4.996v1.631h4.566v1.879h-4.566v1.774h5.127v2.087h-7.554V27.32Zm8.415 0h2.426v7.228h4.345v2.087h-6.771V27.32Zm-41.006-5.45c.052 1.096.73 1.448 1.761 1.448.73 0 1.487-.26 1.487-.952 0-.822-1.33-.979-2.674-1.357-1.33-.378-2.727-.979-2.727-2.687 0-2.036 2.048-2.832 3.796-2.832 1.853 0 3.72.9 3.732 3.001h-2.426c.038-.848-.757-1.122-1.5-1.122-.522 0-1.175.183-1.175.796 0 .718 1.344.848 2.7 1.226 1.344.379 2.701 1.005 2.701 2.688 0 2.361-2.01 3.118-4.057 3.118-2.14 0-4.032-.94-4.044-3.327h2.426Zm6.445-6.184h2.426v7.228h4.344V25h-6.77v-9.315Zm11.608 7.424c1.566 0 2.166-1.383 2.166-2.767 0-1.382-.6-2.765-2.166-2.765-1.565 0-2.165 1.383-2.165 2.765 0 1.384.6 2.767 2.165 2.767m0-7.62c2.936 0 4.593 2.153 4.593 4.853 0 2.701-1.657 4.854-4.593 4.854-2.935 0-4.592-2.153-4.592-4.854 0-2.7 1.657-4.853 4.592-4.853Zm10.137 9.511h-2.791l-2.936-9.315h2.531l1.827 6.928h.026l1.826-6.928h2.531l-3.014 9.315Zm5.219-3.47h2.114l-1.031-3.262h-.026l-1.057 3.262Zm-.156-5.845h2.466l3.483 9.315h-2.532l-.573-1.67h-3.249l-.587 1.67h-2.492l3.484-9.315Zm6.31 0h2.427v3.575l3.065-3.575h3.014l-3.444 3.666L118.032 25h-3.014l-2.504-3.914-.992 1.044V25h-2.427v-9.315Z"/><path fill="#F47216" d="M62.496 16.842c-.3-.693-.993-1.125-1.81-1.141v-.002h-.046l-6.891-.002-.317.48c-.158.238-1.72 2.573-4.066 5.854l-.06.084c-2.107 2.945-4.907 6.61-8.268 10.354-7.608 8.47-10.857 10.094-12.32 10.786l-.19.09c-1.662.805-3.412 1.196-5.352 1.196-6.92 0-12.55-5.63-12.55-12.55 0-6.92 5.63-12.55 12.55-12.55 3.975 0 7.728 1.899 10.091 5.09l2.786-3.902c-3.153-3.608-7.8-5.802-12.895-5.802C13.698 14.827 6 22.528 6 32c0 9.468 7.697 17.173 17.158 17.173 10.162 0 18.149-7.04 23.275-12.333 4.025-4.16 15.377-17.244 15.49-17.375l-.008-.008c1.002-1.244.75-2.23.581-2.615Z"/><path fill="#F47216" d="M30.271 33.513c-1.826 2.556-4.359 5.26-7.771 4.934-3.19-.305-5.826-3.07-5.81-6.458.009-1.784.618-3.264 1.882-4.557 1.243-1.27 2.902-1.915 4.608-1.924a6.481 6.481 0 0 1 5.9 3.803c.174.372.272.695.272.695l3.023-4.227-.148-.249a11.148 11.148 0 0 0-9.051-4.66c-6.132 0-11.12 4.99-11.12 11.121 0 6.132 4.988 11.12 11.12 11.12 2.29 0 3.796-.6 4.729-1.052l.2-.095c1.268-.6 4.454-2.193 11.87-10.45 3.307-3.685 6.082-7.315 8.168-10.231l.06-.084a247.128 247.128 0 0 0 3.83-5.503l-8.983-.001h-.019c-.112.157-11.082 15.54-11.967 16.727l-.792 1.09"/></svg>
